assets/svg/icon-branding-paas-large-blue.svg

<?xml version="1.0" encoding="UTF-8" standalone="no"?>
<svg width="70px" height="64px" viewBox="0 0 70 64" version="1.1" xmlns="http://www.w3.org/2000/svg" xmlns:xlink="http://www.w3.org/1999/xlink">
    <!-- Generator: Sketch 3.8.3 (29802) - http://www.bohemiancoding.com/sketch -->
    <title>blue/icon-branding-paas-large-blue</title>
    <desc>Created with Sketch.</desc>
    <defs>
        <linearGradient x1="26.1719914%" y1="0%" x2="72.2070328%" y2="100%" id="linearGradient-1">
            <stop stop-color="#1055FF" offset="0%"></stop>
            <stop stop-color="#1055FF" offset="60.1182726%"></stop>
            <stop stop-color="#1055FF" offset="81.233724%"></stop>
            <stop stop-color="#1055FF" offset="100%"></stop>
        </linearGradient>
    </defs>
    <g id="blue,-base" stroke="none" stroke-width="1" fill="none" fill-rule="evenodd">
        <g id="icons,-branding-&amp;-other-(blue)" transform="translate(-247.000000, -664.000000)" fill="url(#linearGradient-1)">
            <g id="blue/icon-branding-paas-large-blue" transform="translate(247.000000, 664.000000)">
                <path d="M0.747756956,33.458126 C0.334782195,32.6528253 0.335237342,31.3462872 0.747756956,30.541874 L15.6624994,1.45812603 C16.0754742,0.652825272 17.1478089,7.10542736e-15 18.0444369,7.10542736e-15 L51.6991528,7.10542736e-15 C52.6016857,7.10542736e-15 53.6685707,0.653712821 54.0810903,1.45812603 L68.9958328,30.541874 C69.4088075,31.3471747 69.4083524,32.6537128 68.9958328,33.458126 L54.0810903,62.5418739 C53.6681155,63.3471747 52.5957808,64 51.6991528,64 L18.0444369,64 C17.141904,64 16.0750191,63.3462872 15.6624994,62.5418739 L0.747756956,33.458126 Z M47.99685,45.2477856 L46.5335754,45.2477856 L22.3272909,45.2477856 L20.8882603,45.2477856 C17.4012208,44.8100354 14.7039632,41.64729 14.7039632,37.8025298 C14.7039632,34.3456163 16.8826438,31.4643445 19.8576811,30.5656432 C19.8482301,30.3655914 19.843299,30.169917 19.843299,29.9681141 C19.843299,23.6198605 24.6740365,18.4767331 30.6323295,18.4767331 C35.2880164,18.4767331 39.2545959,21.6184665 40.7663586,26.0196071 C41.6301057,25.133163 42.803273,24.5877262 44.0972499,24.5877262 C46.7480739,24.5877262 48.8971686,26.8767221 48.8971686,29.7006488 C48.8971686,29.8280341 48.8910049,29.9536684 48.8827865,30.0793027 C52.0410928,30.9377309 54.3763327,33.9678379 54.3763327,37.5998515 C54.3763327,41.5636798 51.5931934,44.8100354 47.99685,45.2477856 Z" id="Combined-Shape"></path>
            </g>
        </g>
    </g>
</svg>

<svg width="70" height="64" viewBox="0 0 70 64" xmlns="http://www.w3.org/2000/svg"><title>blue/icon-branding-paas-large-blue</title><defs><linearGradient x1="26.172%" y1="0%" x2="72.207%" y2="100%" id="a"><stop stop-color="#1055FF" offset="0%"/><stop stop-color="#1055FF" offset="60.118%"/><stop stop-color="#1055FF" offset="81.234%"/><stop stop-color="#1055FF" offset="100%"/></linearGradient></defs><path d="M.748 33.458c-.413-.805-.413-2.112 0-2.916L15.662 1.458C16.075.653 17.148 0 18.044 0H51.7c.903 0 1.97.654 2.382 1.458l14.915 29.084c.413.805.412 2.112 0 2.916L54.08 62.542C53.668 63.347 52.596 64 51.7 64H18.044c-.902 0-1.969-.654-2.382-1.458L.748 33.458zm47.249 11.79H20.888c-3.487-.438-6.184-3.6-6.184-7.445 0-3.457 2.179-6.339 5.154-7.237-.01-.2-.015-.396-.015-.598 0-6.348 4.831-11.491 10.79-11.491 4.655 0 8.622 3.141 10.133 7.543.864-.887 2.037-1.432 3.331-1.432 2.651 0 4.8 2.289 4.8 5.113 0 .127-.006.253-.014.378 3.158.859 5.493 3.889 5.493 7.52 0 3.965-2.783 7.211-6.38 7.649z" fill="url(#a)" fill-rule="evenodd"/></svg>
